X: 1
T:Foxie Mary -- Reel
M:C|
L:1/8
R:reel
B:Ryan's Mammoth Collection
N:45
Z:Contributed by Ray Davies,  ray:davies99.freeserve.co.uk
K:D
vF/E/|\
D2FA AFAB | defd g2fe | dedB AFAB | defd edBd |
D2FA AFAB | defd g2fe | dedB A2gb | afeg fd d :|
|:uf|\
a2ag f2fe | defd BAFA | dgg2 bgg2 | a2af gfed |
dFF2 AFAB | defd g2fe | dedB A2gb | afeg fd d :|
